X:20
T:Dos Palomitas
R:waynu
O:Argentina
Z:id:hn-waynu-20
M:2/4
L:1/8
Q:1/4=90
K:Em
G/GF/ GA | B/BA/ BB | e2 d2 | B4 |
B/ed/ BA | G/GF/ GA | B2 A2 | G4 :|
|: e2 d2 | B4 | e2 d2 | B4 |
B/ed/ BA | G/GF/ GA | B2 A2 | G4 :|
P:instrumental variations
|: G/GF/ GA | B/BA/ BB | ee/gd/e | B4 |
B/ed/ BA | G/GF/ GA | BB/dG/A | G4 :|
|: e2 d2 | B4 | e2 d2 | B4 |
B/ed/ BA | G/GF/ GA | BB/dG/A | G4 :|
W:Dos palomitas se lamentaban llorando
W:y la una a la otra se consolaban diciendo:
W:"{\textquestiondown}Qui\'en te ha cortado tus bellas alas, paloma?
W:{\textquestiondown}Fue alg\'un falsario que ha sorprendido tu vuelo?"
W:
W:|: "Ay, ay, ay, paloma,
W:{\textquestiondown}Fue alg\'un falsario que ha sorprendido tu vuelo?" :|
W:
W:"Quiso el ingrata que yo mis alas le diera
W:para ir volando los dos juntitos al cielo.
W:Por su cari\~no le di mis alas, y luego,
W:abandonada de desenga\~no, me muero."
W:
W:|: "Ay, ay, ay, paloma,
W:{\textquestiondown}Fue alg\'un falsario que ha sorprendido tu vuelo?" :|

